X:55
T:Hop Pickers Feast. THO5.055, The
M:2/4
L:1/8
B:Thompson's Complete Collection of 200 Favourite Dances Vol.5
F:https://www.libraryofdance.org/manuals/1780c-Thompson-Compleat-5.pdf
Z:vmp. Peter Dunk 2024
Q:1/4=110
K:D
A|dAfd|a2 g/f/e/d/|g2 f/e/d/c/|d/c/d/e/ dA|
dAfd|a2 g/f/e/d/|g2 f/e/d/c/|d3:|
|:z|ez fz|g>fef|g/a/g/f/ e/f/e/d/|c/d/c/B/ AA|
[eA][eA][fA][fA]|g>feg|fafd|a3 A|
dAfd| a2 g/f/e/d/|g2 f/e/d/c/|d/c/d/e/ dA|
dAfd|a2 g/f/e/d/|g2 f/e/d/c/|d3:|
W:
W:The 1st set to the 2nd Lady and hands round ./.
W:the same to the 2nd Gent ./:
W:Cross over 2 Couples, lead up to the top and cast off :/.
W:Hands 4 round at bottom, Right and Left :/:

